X:5738
T:Gan Ainm
R:reel
S:Billy McComiskey
H:
N:
D:Solo Album #1
Z:Adrian Scahill
M:4/4
L:1/8
K:D
AG|F2EF DB,B,2|GEE2 CEAG|Fdd2 BAGF|ECC2 AFGE|\
F2EF DB,B,2|GEE2 CEAG|Fdd2 BGEC|DFEC D4:||\
Add2 fded|Bee2 gece|dBB2 ADFA|GEE2 CEAG|\
1 Fdd2 fded|Bee2 gece|dfed cAGE|DFEC D4:|2 F2EF DB,B,2|GEE2 CEAG|Fdd2 BGEC|DFEC D4||
